packages/core/src/svgs/tokens/mono/GMEE.svg

<svg width="24" height="24" viewBox="0 0 24 24" fill="none" xmlns="http://www.w3.org/2000/svg">
<path d="M10.6109 2H13.9444V3.26112C17.5666 3.85001 19.2333 6.16668 19.811 9.22223H15.7221C15.1721 7.86668 14.0555 7.00001 11.9999 7.00001C9.26101 7.00001 7.83323 9.16668 7.83323 12.0055C7.83323 14.85 9.35544 16.8722 11.9999 16.9945C14.3443 17.1056 15.4721 15.9389 15.9221 14.2222H12.8332V11.4445H20.0444L20.0555 12.1334C20.0555 16.5556 18.6665 20.2278 13.9444 20.8112V22H10.6109V20.7278C6.35545 19.9778 3.94434 16.6445 3.94434 12.1334C3.94434 7.60557 6.22211 3.85556 10.6109 3.21112V2Z" fill="white"/>
</svg>

<svg xmlns="http://www.w3.org/2000/svg" width="24" height="24" fill="none" viewBox="0 0 24 24">
    <path fill="#fff" d="M10.61 2h3.334v1.261c3.623.589 5.29 2.906 5.867 5.961h-4.089C15.172 7.867 14.056 7 12 7c-2.74 0-4.167 2.167-4.167 5.006 0 2.844 1.522 4.866 4.167 4.988 2.344.112 3.472-1.055 3.922-2.772h-3.089v-2.777h7.211l.011.688c0 4.423-1.389 8.095-6.11 8.678V22H10.61v-1.272c-4.256-.75-6.667-4.084-6.667-8.595 0-4.527 2.278-8.277 6.667-8.922z"/>
</svg>
